X: 42879
T: Wilfred Of Cochrane
R: jig
M: 6/8
K: Edorian
"Em"G2A B2B "Bm"|(BAG) F2A|D2D (DEF)|"Em"G2A B2B|
B2B (BAG)|"Bm"D2D (DEF)|"Em"G2A "Bm"B2A|"Em"G3 G3:|
"Em"B2e e2e|(edc) B2B|"Bm"(BcB) A2A|(ABA) G2B|
"Em"B2e e2e|(edc) B2B|"D"A2A (ABA)|"Em"G3 G3:|

